X:1
T:Frauenliebe und Leben, Op.42
T:Seit ich ihn gesehen
T:1. Seit ich ihn gesehen
T:Robert Schumann
T:Frauenliebe und Leben, Op.42
T:Adelbert von Chamisso
T:OpenScore (CC0)
T:OpenScore (CC0)
T:OpenScore (CC0)
C:Robert Schumann
Z:Adelbert von Chamisso
Z:OpenScore (CC0)
%%score 1 { ( 2 4 6 ) | ( 3 5 ) }
L:1/8
Q:1/4=66
M:3/4
K:Bb
V:1 treble nm="Voice"
V:2 treble nm="Piano"
V:4 treble 
V:6 treble 
V:3 bass 
V:5 bass 
V:1
"^Larghetto" z6 |!p! F F G3 F | F F z2 B G | F3/2 E/ E2 z2 | G G _A3 G | G G z2 c B | %6
w: |Seit ich ihn ge-|se- hen, glaub' ich|blind zu sein;|wo ich hin nur|bli- cke, seh' ich|
 B3/2[Q:1/4=60]"^ritard." =A/ A2 A B | (e3 dc) B | B2 A2 A3/2 B/ | (e3 dc) =B | (=B2 c2) d d | %11
w: ihn al- lein. Wie im|wa- * * chen|Trau- me schwebt sein|Bild _ _ mir|vor, _ taucht aus|
 (d3 Ec) c | c3 B B G | F B c3 B | B4 z2 | z6 | z6 |!pp! F F G3 F | F F B3 G | F3/2 E/ E2 z2 | %20
w: tief- * * stem|Dun- kel hel- ler,|hel- ler nur em-|por.|||Sonst ist licht und|farb- los al- les|um mich her,|
 G G _A3 G | G G z2 c B |[Q:1/4=56]"^ritard." !>!B3/2 =A/ A2 A B | (e3 dc) B | B2 A2 A3/2 B/ | %25
w: nach der Schwe- stern|Spie- le nicht be-|gehr' ich mehr, möch- te|lie- * * ber|wei- nen still im|
 (e3 dc) =B | (=B2 c2) d d | (d3 Ec) c | c2 B2 z2 | F B c3 B | B4 z2 | z6 | z6 | z6 | z6 | %35
w: Käm- * * mer-|lein; _ seit ich|ihn _ _ ge-|se- hen,|glaub' ich blind zu|sein.|||||
 !fermata!z6 |] %36
w: |
V:2
!p! (.[B,F]2 .[B,G]2 z .[A,F]) | (.[B,F]2 .[B,G]2 z .[A,F]) | (.[B,F] z B3 G) | %3
 ([=B,F]>[CE]) [CE] [C_A]2 [B,G] | (.[CG]2 .[C_A]2 z .[=B,G]) | [CG]2 (G3 _G) | %6
 (B2"^ritard." =A2) ([CFA][B,FB] | [EAe]3 [DBd][CGc][CGB]) | (B2 A2) [A,CF]>[B,DF] | %9
 [A,EF]3 [B,DF][A,CF]>[G,=B,F] | (F6 | E6) | (D6 |[K:bass] [B,D]2) C7/2 B,/ | %14
 [D,B,]4!pp! ([C,B,][^C,G,]) | x2 C7/2 B,/ |[K:treble] (.[B,F]2 .[B,G]2 z .[A,F]) | %17
 (.[B,F]2 .[B,G]2 z .[A,F]) | (.[B,F] z B3 G) | ([=B,F]>[CE]) [CE] [C_A]2 [B,G] | %20
 (.[CG]2 .[C_A]2 z .[=B,G]) | [CG]2 (G3 _G) |"^ritard." (B2 =A2) ([CFA][B,FB] | %23
 [EAe]3 [DBd][CGc][CGB]) | (B2 A2) [A,CF]>[B,DF] | [A,EF]3 [B,DF][A,CF]>[G,=B,F] | (F6 | E6) | %28
 (D6 |[K:bass] [B,D]2) C7/2 B,/ | [D,B,]4!pp! ([C,B,][^C,G,]) | x2 C7/2 B,/ | %32
[K:treble]!pp! (.[B,F]2 .[B,G]2 z .[A,F]) | (.[B,F]2 .[B,G]2 z .[A,F]) | [B,F]2 z2!ppp! x2 | %35
 x4 z2 |] %36
V:3
 (.[B,,D,]2 .[E,,E,]2 z .[F,,E,]) | (.[B,,D,]2 .[E,,E,]2 z .[F,,E,]) | (.[B,,D,] z (!>!D,3 G,)) | %3
 (_A,>G,) G, [F,,F,]2 [G,,F,] | (.[C,E,]2 .[F,,F,]2 z .[G,,F,]) | x2 (G,3 _G,) | %6
 [E,F,]4 ([E,F,][D,F,] | [C,F,]3 [B,,F,][E,G,]=E,) | F,4 [_E,F,]>[D,F,] | %9
 [C,F,]3 [B,,F,][E,F,]>[D,F,] | (F,6 | B,,2) C,2 A,,2- | A,,2 _B,,2 ([E,,E,][=E,,=E,]) | %13
 ([F,,F,]4 F,,2) |!pp! ([^F,,,^F,,]2 [G,,,G,,]2) ([E,,,E,,][=E,,,=E,,]) | [=F,,,=F,,-]4 [F,,F,]2 | %16
 (.[B,,D,]2 .[E,,E,]2 z .[F,,E,]) | (.[B,,D,]2 .[E,,E,]2 z .[F,,E,]) | (.[B,,D,] z D,3 G,) | %19
 (_A,>G,) G, [F,,F,]2 [G,,F,] | (.[C,E,]2 .[F,,F,]2 z .[G,,F,]) | [C,E,]2 (G,3 _G,) | %22
 [E,F,]4 ([E,F,][D,F,] | [C,F,]3 [B,,F,][E,G,]=E,) | F,4 [_E,F,]>[D,F,] | %25
 [C,F,]3 [B,,F,][E,F,]>[D,F,] | (F,6 | B,,2) C,2 A,,2- | A,,2 _B,,2 ([E,,E,][=E,,=E,]) | %29
 ([F,,F,]4 F,,2) |!pp! ([^F,,,^F,,]2 [G,,,G,,]2) ([E,,,E,,][=E,,,=E,,]) | [=F,,,=F,,-]4 [F,,F,]2 | %32
 (.[B,,D,]2 .[E,,E,]2 z .[F,,E,]) | (.[B,,D,]2 .[E,,E,]2 z .[F,,E,]) | [B,,D,]2 z2 [F,B,D]2- | %35
 !fermata![F,B,D]4 z2 |] %36
V:4
 x6 | x6 | x2 [B,D]4 | x6 | x6 | x2 C4 | [CF]4 x2 | x6 | [CF]4 x2 | x6 | G,6- | G,4- G,F,- | %12
 F,4 G,2 |[K:bass] F,2 _E,4 | x6 | D,2 _E,4 |[K:treble] x6 | x6 | x2 [B,D]4 | x6 | x6 | x2 C4 | %22
 [CF]4 x2 | x6 | [CF]4 x2 | x6 | G,6- | G,4- G,F,- | F,4 G,2 |[K:bass] F,2 _E,4 | x6 | D,2 _E,4 | %32
[K:treble] x6 | x6 | x6 | x6 |] %36
V:5
 x6 | x6 | x2 [G,,D,]4 | C,3 x2 x | x6 | [C,E,]2 E,4 | x6 | x6 | x6 | x6 | D,2 C,2 =B,,2- | x6 | %12
 x6 | x6 | x6 | x6 | x6 | x6 | x2 !>![G,,D,]4 | C,3 x x2 | x6 | x2 E,4 | x6 | x6 | x6 | x6 | %26
 D,2 C,2 =B,,2- | x6 | x6 | x6 | x6 | x6 | x6 | x6 | x2 x2 B,,2- | !fermata![B,,,B,,]4 x2 |] %36
V:6
 x6 | x6 | x6 | x6 | x6 | x2 c4 | x6 | x6 | x6 | x6 | =B,2 C2 D2- | D2- DC- C2- | C2- CB,- B,2 | %13
[K:bass] F,B,- B,2 A,2 | x6 | (F,B,- B,2 A,2) |[K:treble] x6 | x6 | x6 | x6 | x6 | x2 c4 | x6 | %23
 x6 | x6 | x6 | =B,2 C2 D2- | D2- DC- C2- | C2- CB,- B,2- |[K:bass] F,B,- B,2 A,2 | x6 | %31
 (F,B,- B,2 A,2) |[K:treble] x6 | x6 | x6 | x6 |] %36

